brandFactory_export/2.Regular/Mano derecha_2Regular.svg

<?xml version="1.0" encoding="UTF-8"?>
<svg width="24px" height="24px" viewBox="0 0 24 24" version="1.1" xmlns="http://www.w3.org/2000/svg" xmlns:xlink="http://www.w3.org/1999/xlink">
    <title>2.Regular/Mano derecha_2Regular</title>
    <g id="Symbols" stroke="none" stroke-width="1" fill="none" fill-rule="evenodd">
        <g id="2.Regular/Mano-derecha_2Regular" fill="#5CB615" fill-rule="nonzero">
            <path d="M3.80168067,20.2420168 C3.02521008,20.2420168 2.45714286,20.0605042 2.07394958,19.687395 C1.69747899,19.3210084 1.48235294,18.6722689 1.48235294,17.8991597 L1.48235294,8.59495798 C1.57310924,8.50420168 1.81512605,8.39327731 1.89915966,8.35630252 C2.26890756,8.18487395 3.37815126,7.64033613 4.90420168,6.8907563 L4.97142857,6.85714286 C7.18991597,5.76470588 9.94957983,4.40672269 11.6605042,3.60672269 C11.8487395,3.51932773 12.3159664,3.34789916 12.5848739,3.68403361 C12.712605,3.84201681 12.7394958,4.01344538 12.7394958,4.13109244 C12.7394958,4.31932773 12.6689076,4.51428571 12.5411765,4.67226891 C12.3327731,4.93445378 11.9966387,5.19327731 11.4184874,5.53277311 C10.9711034,5.79505182 10.6961162,6.27468067 10.6957983,6.79327731 C10.6957983,6.9210084 10.712605,7.05210084 10.7495798,7.17983193 C10.9277311,7.81512605 11.5092437,8.25546218 12.1747899,8.25546218 L20.994958,8.25546218 C21.9596639,8.31596639 22.1512605,8.71596639 22.1512605,9.34789916 C22.1512605,10.1176471 21.8184874,10.4470588 21.0352941,10.4470588 L17.5462185,10.4470588 C17.0857143,10.4470588 16.6453782,10.6621849 16.3663866,11.0285714 C16.1714286,11.2840336 16.0672269,11.5966387 16.0672269,11.912605 C16.0672269,12.0436975 16.087395,12.1781513 16.1243697,12.3092437 C16.1579832,12.4336134 16.1781513,12.5747899 16.1781513,12.7361345 C16.1781513,13.502521 15.7882353,13.6134454 15.6235294,13.6605042 C15.2369748,13.7714286 14.9142857,14.0302521 14.7260504,14.3831933 C14.6117647,14.5983193 14.5546218,14.8302521 14.5546218,15.0689076 C14.5546218,15.2235294 14.5781513,15.3781513 14.6285714,15.5294118 C14.6722689,15.6638655 14.6957983,15.8218487 14.6957983,16.0033613 C14.6957983,16.7731092 14.3193277,16.8806723 14.1344538,16.9310924 C13.7445378,17.0386555 13.4184874,17.3008403 13.2302521,17.6537815 C13.112605,17.8689076 13.0554622,18.1042017 13.0554622,18.3428571 C13.0554622,18.497479 13.0789916,18.6521008 13.1294118,18.8033613 C13.1731092,18.9344538 13.1966387,19.092437 13.1966387,19.2705882 C13.1966387,19.9663866 12.907563,20.2521008 12.2016807,20.2521008 L3.80168067,20.2521008 L3.80168067,20.2420168 Z M14.6722689,19.2605042 C14.6722689,18.9210084 14.6252101,18.6117647 14.5310924,18.3327731 C15.5596639,18.0470588 16.1714286,17.2033613 16.1714286,15.9932773 C16.1714286,15.6537815 16.1243697,15.3378151 16.0302521,15.0621849 C17.0521008,14.7731092 17.6537815,13.9327731 17.6537815,12.7294118 C17.6537815,12.4336134 17.6168067,12.1579832 17.5462185,11.9092437 L21.0285714,11.9092437 C22.6285714,11.9092437 23.6235294,10.9277311 23.6235294,9.34789916 C23.6235294,7.82857143 22.6991597,6.89747899 21.0823529,6.79327731 L21.0285714,6.79327731 C20.7193277,6.79327731 14.8369748,6.78991597 12.1680672,6.79327731 C12.8605042,6.38655462 13.3445378,6.02016807 13.6941176,5.57983193 C14.0369748,5.14957983 14.2117647,4.63529412 14.2117647,4.13109244 C14.2117647,3.64705882 14.0537815,3.1697479 13.7344538,2.77310924 C13.1092437,1.99327731 12.0436975,1.80168067 11.0184874,2.28235294 C9.28067227,3.09915966 6.48739496,4.47394958 4.24201681,5.57983193 C2.84369748,6.26890756 1.63697479,6.86386555 1.27058824,7.03193277 C0.890756303,7.20672269 0,7.62016807 0,8.55798319 L0,17.902521 C0,19.0823529 0.369747899,20.087395 1.03865546,20.7361345 C1.70756303,21.3815126 2.63529412,21.707563 3.80168067,21.707563 L12.1983193,21.707563 C13.7243697,21.7042017 14.6722689,20.7663866 14.6722689,19.2605042 Z" id="Mano-derecha_2Regular"></path>
        </g>
    </g>
</svg>

<svg width="24" height="24" viewBox="0 0 24 24" xmlns="http://www.w3.org/2000/svg"><path d="M3.802 20.242c-.777 0-1.345-.181-1.728-.555-.377-.366-.592-1.015-.592-1.788V8.595c.091-.09.333-.202.417-.239.37-.171 1.48-.716 3.005-1.465l.067-.034c2.219-1.092 4.979-2.45 6.69-3.25.188-.088.655-.26.924.077.128.158.154.33.154.447 0 .188-.07.383-.198.541-.208.262-.544.521-1.123.86a1.462 1.462 0 00-.668 1.648c.178.635.76 1.075 1.425 1.075h8.82c.965.061 1.156.461 1.156 1.093 0 .77-.333 1.1-1.116 1.1h-3.489c-.46 0-.9.214-1.18.58-.195.256-.299.569-.299.885 0 .13.02.265.057.396.034.125.054.266.054.427 0 .767-.39.877-.554.925-.387.11-.71.37-.898.722a1.45 1.45 0 00-.097 1.146c.043.135.067.293.067.474 0 .77-.377.878-.562.928a1.466 1.466 0 00-1.005 1.872c.044.131.068.29.068.468 0 .695-.29.981-.995.981h-8.4v-.01zm10.87-.981c0-.34-.047-.65-.14-.928 1.028-.286 1.64-1.13 1.64-2.34 0-.34-.048-.655-.142-.93 1.022-.29 1.624-1.13 1.624-2.334 0-.295-.037-.571-.108-.82h3.483c1.6 0 2.595-.981 2.595-2.561 0-1.52-.925-2.45-2.542-2.555h-.053c-.31 0-6.192-.003-8.86 0 .692-.406 1.176-.773 1.525-1.213.343-.43.518-.945.518-1.449 0-.484-.158-.961-.478-1.358-.625-.78-1.69-.971-2.716-.49-1.737.816-4.53 2.19-6.776 3.297-1.398.689-2.605 1.284-2.971 1.452C.89 7.207 0 7.62 0 8.558v9.345c0 1.18.37 2.184 1.039 2.833.669.646 1.596.972 2.763.972h8.396c1.526-.004 2.474-.942 2.474-2.447z" fill="#5CB615" fill-rule="nonzero"/></svg>
